public/avatar/body/122.svg

<svg xmlns:xlink="http://www.w3.org/1999/xlink" height="82" width="84.85" xmlns="http://www.w3.org/2000/svg"><g transform="translate(37.4 42.25)"><use height="38" transform="translate(-11.95 -17.45)" width="32.05" xlink:href="#a"/><use height="38.95" transform="translate(-12.45 -17.95)" width="33.05" xlink:href="#b"/><use height="23.65" transform="translate(-17.45 -1.05)" width="42.65" xlink:href="#c"/></g><defs><path d="M27.35 7.4q2.15 4.15 3.55 8.75 1.45 4.7 1.15 9.5-.35 4.95-4.2 8.1-3.8 3.2-8.75 4.05l-2.6.2q-3.6 0-7.05-1.15-4.65-1.6-7.1-5.5Q-.2 27.4.05 23q.2-4.4 2-9.3Q3.85 8.75 7 5.05 10.1 1.3 14.7.1l1.8-.1q1.9.05 3.7.8 4.75 2.05 7.15 6.6" fill="#b87342" fill-rule="evenodd" transform="translate(-.05)" id="d"/><path d="M27.35 7.4Q24.95 2.85 20.2.8 17.55-.3 14.7.1 10.1 1.3 7 5.05q-3.15 3.7-4.95 8.65-1.8 4.9-2 9.3-.25 4.4 2.3 8.35 2.45 3.9 7.1 5.5 4.65 1.55 9.65.95 4.95-.85 8.75-4.05 3.85-3.15 4.2-8.1.3-4.8-1.15-9.5-1.4-4.6-3.55-8.75Z" fill="none" stroke="#010102" stroke-linecap="round" stroke-linejoin="round" transform="translate(.45 .5)" id="e"/><use height="38" width="32.05" xlink:href="#d" id="a"/><use height="38.95" width="33.05" xlink:href="#e" id="b"/><g id="c" fill-rule="evenodd"><path d="m19.1-.7.6-.35q4.1.2 5.1 2.55Q22.3.1 19.55-.25l-.3.35-.15-.8m6 3.2.05.45q.05.35-.5.65-1.5.85-3.25 1.3 0 4.9-2.8 8.8l.8-.15q1.05.9 1.45 2.1.45 1.25-.35 2.1-1.85 1.05-3.8.35l-1.65.05q-2.15 6.8-8.6 3l-.75-.55H2.8q-7.25 5-9.7-2.5l-4.05-.1-.9-.6q-.35-1.2-.05-2.15l.7-1.75.55-.05q-2.3-4.05-1.85-8.85-1.9.1-3.65-.85-1.2-.6-1.3-1.8 2-3.2 6.55-3l.45.2-.2.95-.35-.35q-2.75.15-5.05 1.7l-.65.6q0 .45.4.8l1 .3 1 .35 2.65.45-.7.65.6.05-.3 1.2q-.45 2 .65 3.75l2.05 4.6-.05.05.15.1-1.15-.2q-.95 1.2-.8 2.75 2.35.95 5.05.85 2.55 6.8 8.95 2.1l3.4.45 3.05.8.65.2.05.1.45-.05q3.4.4 4.15-3.95 2.75-.3 5.45-.05.75-1.9-1.3-3.2l-.45.1-.15-.1.35-.25-.45.15-.2-.15 2.35-4.5q1.4-2.25.4-4.8h.1l-.5-.65 2.5-.5 1.8-.4.65-.55" transform="translate(17.45 1.05)"/><path d="M-10.45-.85Q-4.8 4.3 2.2 7.05L4.35 12l1.8-4.9 2.1-.85Q14.2 3.55 19.1-.7l.15.8Q13.8 5.45 6.55 7.75l-.2.6L5.7 10l.15.2.05.05.4.35 4.25 3.65.5-.25.5-1.05q1.05-2.7 1-5.8l1.3.7 4.3 1.65h.65l.25-.7q.45-2.2-.25-4.65l1.35-.2.5.65h-.1q1 2.55-.4 4.8l-.85.5q-.9.6-1.95.5L13.2 8.55v1.6q-.45 7.75-5.6 3.35l-2.15-2.55-.45.75-.55.55-.75-.4-.55-1Q1.95 13-.2 14.4q-.9.5-1.6.2-3.5-1.1-2.9-6.05l-.6.45q-2.45 2.05-5.4 1.05 3.6-.8 6.85-2.9-.25 4.05 1.8 7.1l.65-.25Q0 13.15 1 12l1.6-1.75h.15v-.15L2 7.75Q-4.55 5.3-10.2.8l-.15-.2-.3-.5.2-.95M-11.4 9.6q-1.1-1.75-.65-3.75l.3-1.2-.6-.05.7-.65 1.4.2q-.65 2.45-.1 4.75l.25.65-.6.5-.7-.45" fill="#2e0402" transform="translate(17.45 1.05)"/><path d="M17.35 10.4q1.05.1 1.95-.5l.85-.5-2.35 4.5q.6-1.35.05-2.6l-.5-.9m.9 3.85.45-.1q2.05 1.3 1.3 3.2-2.7-.25-5.45.05-.75 4.35-4.15 3.95l.6-.05 1.05-1q1.55-1.65 1.4-3.8l2.15-.95 3.9.85.1-.1-1.35-2.05M9.9 21.3l-.65-.2-3.05-.8-3.4-.45q-6.4 4.7-8.95-2.1-2.7.1-5.05-.85-.15-1.55.8-2.75l1.15.2 2.9 1.45q6.55 3.25 14 2.25 1.55 1.4 2.25 3.25m-19.25-7.1-2.05-4.6.7.45q2.95 1 5.4-1.05l.6-.45q-.6 4.95 2.9 6.05.7.3 1.6-.2 2.15-1.4 3.35-3.55l.55 1L4.1 16l.85-.2.05-4.1.45-.75L7.6 13.5l.2 2.7-3.05.2q-7.2.2-14.1-2.2m12.1-4.1v.15H2.6l.15-.15" fill="#c63021" transform="translate(17.45 1.05)"/><path d="M7.6 13.5q5.15 4.4 5.6-3.35v-1.6l4.15 1.85.5.9q.55 1.25-.05 2.6l.2.15-3.85.95q-3.05.9-6.35 1.2l-.2-2.7m10.5.65.15.1 1.35 2.05-.1.1-3.9-.85 2.5-1.4m-7.7 7.2-.45.05-.05-.1q-.7-1.85-2.25-3.25l5.8-1.55q.15 2.15-1.4 3.8l-1.05 1-.6.05" fill="#9f261a" transform="translate(17.45 1.05)"/><path d="m24.8 1.5.25.15.15.4-3.5-1.4 1.15 1.05-.2.2q-1.5 1.75-3.6 2.2l3.6-.65-2.5.5-1.35.2q.7 2.45.25 4.65l-.25.7h-.65q-1-.75-2.1-1.2-1.7-.8-3.45-1.3l1.25.85-1.3-.7q.05 3.1-1 5.8l-.5 1.05Q8.8 12.4 7.4 10.1L6.35 8.35l.2-.6Q13.8 5.45 19.25.1l.3-.35Q22.3.1 24.8 1.5M6.3 10.6l-.4-.35-.05-.05-.15-.2.6.6m-21.6-7.45-1-.3q-.4-.35-.4-.8l.65-.6Q-13.75-.1-11-.25l-5.7 2.3 1.4 1.1M2.75 10.1l-.15.15L1 12q-1 1.15-2.4 2l.85-.85-.9-.5L-3.9 6.8l-.75.45-3.7.75-1.75 1.55-.25-.65q-.55-2.3.1-4.75-2.25-1-4.35-2.2v-.3L-10.35.6l.15.2Q-4.55 5.3 2 7.75l.75 2.35" fill="#64180f" transform="translate(17.45 1.05)"/><path d="m18 14.05.45-.15-.35.25-2.5 1.4-2.15.95-5.8 1.55q-7.45 1-14-2.25l-2.9-1.45-.15-.1.05-.05q6.9 2.4 14.1 2.2l3.05-.2q3.3-.3 6.35-1.2l3.85-.95m-14.3-2.2.75.4.55-.55-.05 4.1-.85.2-.4-4.15" fill="#56110b" transform="translate(17.45 1.05)"/><path d="m25.2 2.05-.1.45-.65.55-1.8.4-3.6.65q2.1-.45 3.6-2.2l.2-.2L21.7.65l3.5 1.4M18.15 9.5l-4.3-1.65L12.6 7q1.75.5 3.45 1.3 1.1.45 2.1 1.2m-7.1 4.5-.5.25L6.3 10.6l-.6-.6.65-1.65L7.4 10.1q1.4 2.3 3.65 3.9m-22.7-10.05-2.65-.45-1-.35-1.4-1.1 5.7-2.3.35.35.3.5-4.25 1.05v.3q2.1 1.2 4.35 2.2l-1.4-.2M-1.4 14l-.65.25q-2.05-3.05-1.8-7.1-3.25 2.1-6.85 2.9l.6-.5L-8.35 8l3.7-.75.75-.45 2.45 5.85.9.5-.85.85" fill="#a6281b" transform="translate(17.45 1.05)"/></g></defs></svg>

<?xml version="1.0" encoding="UTF-8" standalone="no"?>
<svg xmlns:xlink="http://www.w3.org/1999/xlink" height="82.0px" width="84.85px" xmlns="http://www.w3.org/2000/svg">
  <g transform="matrix(1.0, 0.0, 0.0, 1.0, 37.4, 42.25)">
    <use height="38.0" transform="matrix(1.0, 0.0, 0.0, 1.0, -11.95, -17.45)" width="32.05" xlink:href="#sprite0"/>
    <use height="38.95" transform="matrix(1.0, 0.0, 0.0, 1.0, -12.45, -17.95)" width="33.05" xlink:href="#sprite1"/>
    <use height="23.65" transform="matrix(1.0, 0.0, 0.0, 1.0, -17.45, -1.05)" width="42.65" xlink:href="#shape2"/>
  </g>
  <defs>
    <g id="sprite0" transform="matrix(1.0, 0.0, 0.0, 1.0, -0.05, 0.0)">
      <use height="38.0" transform="matrix(1.0, 0.0, 0.0, 1.0, 0.05, 0.0)" width="32.05" xlink:href="#shape0"/>
    </g>
    <g id="shape0" transform="matrix(1.0, 0.0, 0.0, 1.0, -0.05, 0.0)">
      <path d="M27.35 7.4 Q29.5 11.55 30.9 16.15 32.35 20.85 32.05 25.65 31.7 30.6 27.85 33.75 24.05 36.95 19.1 37.8 L16.5 38.0 Q12.9 38.0 9.45 36.85 4.8 35.25 2.35 31.35 -0.2 27.4 0.05 23.0 0.25 18.6 2.05 13.7 3.85 8.75 7.0 5.05 10.1 1.3 14.7 0.1 L16.5 0.0 Q18.4 0.05 20.2 0.8 24.95 2.85 27.35 7.4" fill="#b87342" fill-rule="evenodd" stroke="none"/>
    </g>
    <g id="sprite1" transform="matrix(1.0, 0.0, 0.0, 1.0, 0.45, 0.5)">
      <use height="38.95" transform="matrix(1.0, 0.0, 0.0, 1.0, -0.45, -0.5)" width="33.05" xlink:href="#shape1"/>
    </g>
    <g id="shape1" transform="matrix(1.0, 0.0, 0.0, 1.0, 0.45, 0.5)">
      <path d="M27.35 7.4 Q24.95 2.85 20.2 0.8 17.55 -0.3 14.7 0.1 10.1 1.3 7.0 5.05 3.85 8.75 2.05 13.7 0.25 18.6 0.05 23.0 -0.2 27.4 2.35 31.35 4.8 35.25 9.45 36.85 14.1 38.4 19.1 37.8 24.05 36.95 27.85 33.75 31.7 30.6 32.05 25.65 32.35 20.85 30.9 16.15 29.5 11.55 27.35 7.4 Z" fill="none" stroke="#010102" stroke-linecap="round" stroke-linejoin="round" stroke-width="1.0"/>
    </g>
    <g id="shape2" transform="matrix(1.0, 0.0, 0.0, 1.0, 17.45, 1.05)">
      <path d="M19.1 -0.7 L19.7 -1.05 Q23.8 -0.85 24.8 1.5 22.3 0.1 19.55 -0.25 L19.25 0.1 19.1 -0.7 M25.1 2.5 L25.15 2.95 Q25.2 3.3 24.65 3.6 23.15 4.45 21.4 4.9 21.4 9.8 18.6 13.7 L19.4 13.55 Q20.45 14.45 20.85 15.65 21.3 16.9 20.5 17.75 18.65 18.8 16.7 18.1 L15.05 18.15 Q12.9 24.95 6.45 21.15 L5.7 20.6 2.8 20.6 Q-4.45 25.6 -6.9 18.1 L-10.95 18.0 -11.85 17.4 Q-12.2 16.2 -11.9 15.25 L-11.2 13.5 -10.65 13.45 Q-12.95 9.4 -12.5 4.6 -14.4 4.7 -16.15 3.75 -17.35 3.15 -17.45 1.95 -15.45 -1.25 -10.9 -1.05 L-10.45 -0.85 -10.65 0.1 -11.0 -0.25 Q-13.75 -0.1 -16.05 1.45 L-16.7 2.05 Q-16.7 2.5 -16.3 2.85 L-15.3 3.15 -14.3 3.5 -11.65 3.95 -12.35 4.6 -11.75 4.65 -12.05 5.85 Q-12.5 7.85 -11.4 9.6 L-9.35 14.2 -9.4 14.25 -9.25 14.35 -10.4 14.15 Q-11.35 15.35 -11.2 16.9 -8.85 17.85 -6.15 17.75 -3.6 24.55 2.8 19.85 L6.2 20.3 9.25 21.1 9.9 21.3 9.95 21.4 10.4 21.35 Q13.8 21.75 14.55 17.4 17.3 17.1 20.0 17.35 20.75 15.45 18.7 14.15 L18.25 14.25 18.1 14.15 18.45 13.9 18.0 14.05 17.8 13.9 20.15 9.4 Q21.55 7.15 20.55 4.6 L20.65 4.6 20.15 3.95 22.65 3.45 24.45 3.05 25.1 2.5" fill="#000000" fill-rule="evenodd" stroke="none"/>
      <path d="M-10.45 -0.85 Q-4.8 4.3 2.2 7.05 L4.35 12.0 6.15 7.1 8.25 6.25 Q14.2 3.55 19.1 -0.7 L19.25 0.1 Q13.8 5.45 6.55 7.75 L6.35 8.35 5.7 10.0 5.85 10.2 5.9 10.25 6.3 10.6 10.55 14.25 11.05 14.0 11.55 12.95 Q12.6 10.25 12.55 7.15 L13.85 7.85 18.15 9.5 18.8 9.5 19.05 8.8 Q19.5 6.6 18.8 4.15 L20.15 3.95 20.65 4.6 20.55 4.6 Q21.55 7.15 20.15 9.4 L19.3 9.9 Q18.4 10.5 17.35 10.4 L13.2 8.55 13.2 10.15 Q12.75 17.9 7.6 13.5 L5.45 10.95 5.0 11.7 4.45 12.25 3.7 11.85 3.15 10.85 Q1.95 13.0 -0.2 14.4 -1.1 14.9 -1.8 14.6 -5.3 13.5 -4.7 8.55 L-5.3 9.0 Q-7.75 11.05 -10.7 10.05 -7.1 9.25 -3.85 7.15 -4.1 11.2 -2.05 14.25 L-1.4 14.0 Q0.0 13.15 1.0 12.0 L2.6 10.25 2.75 10.25 2.75 10.1 2.0 7.75 Q-4.55 5.3 -10.2 0.8 L-10.35 0.6 -10.65 0.1 -10.45 -0.85 M-11.4 9.6 Q-12.5 7.85 -12.05 5.85 L-11.75 4.65 -12.35 4.6 -11.65 3.95 -10.25 4.15 Q-10.9 6.6 -10.35 8.9 L-10.1 9.55 -10.7 10.05 -11.4 9.6" fill="#2e0402" fill-rule="evenodd" stroke="none"/>
      <path d="M17.35 10.4 Q18.4 10.5 19.3 9.9 L20.15 9.4 17.8 13.9 Q18.4 12.55 17.85 11.3 L17.35 10.4 M18.25 14.25 L18.7 14.15 Q20.75 15.45 20.0 17.35 17.3 17.1 14.55 17.4 13.8 21.75 10.4 21.35 L11.0 21.3 12.05 20.3 Q13.6 18.65 13.45 16.5 L15.6 15.55 19.5 16.4 19.6 16.3 18.25 14.25 M9.9 21.3 L9.25 21.1 6.2 20.3 2.8 19.85 Q-3.6 24.55 -6.15 17.75 -8.85 17.85 -11.2 16.9 -11.35 15.35 -10.4 14.15 L-9.25 14.35 -6.35 15.8 Q0.2 19.05 7.65 18.05 9.2 19.45 9.9 21.3 M-9.35 14.2 L-11.4 9.6 -10.7 10.05 Q-7.75 11.05 -5.3 9.0 L-4.7 8.55 Q-5.3 13.5 -1.8 14.6 -1.1 14.9 -0.2 14.4 1.95 13.0 3.15 10.85 L3.7 11.85 4.1 16.0 4.95 15.8 5.0 11.7 5.45 10.95 7.6 13.5 7.8 16.2 4.75 16.4 Q-2.45 16.6 -9.35 14.2 M2.75 10.1 L2.75 10.25 2.6 10.25 2.75 10.1" fill="#c63021" fill-rule="evenodd" stroke="none"/>
      <path d="M7.6 13.5 Q12.75 17.9 13.2 10.15 L13.2 8.55 17.35 10.4 17.85 11.3 Q18.4 12.55 17.8 13.9 L18.0 14.05 14.15 15.0 Q11.1 15.9 7.8 16.2 L7.6 13.5 M18.1 14.15 L18.25 14.25 19.6 16.3 19.5 16.4 15.6 15.55 18.1 14.15 M10.4 21.35 L9.95 21.4 9.9 21.3 Q9.2 19.45 7.65 18.05 L13.45 16.5 Q13.6 18.65 12.05 20.3 L11.0 21.3 10.4 21.35" fill="#9f261a" fill-rule="evenodd" stroke="none"/>
      <path d="M24.8 1.5 L25.05 1.65 25.2 2.05 21.7 0.65 22.85 1.7 22.65 1.9 Q21.15 3.65 19.05 4.1 L22.65 3.45 20.15 3.95 18.8 4.15 Q19.5 6.6 19.05 8.8 L18.8 9.5 18.15 9.5 Q17.15 8.75 16.05 8.3 14.35 7.5 12.6 7.0 L13.85 7.85 12.55 7.15 Q12.6 10.25 11.55 12.95 L11.05 14.0 Q8.8 12.4 7.4 10.1 L6.35 8.35 6.55 7.75 Q13.8 5.45 19.25 0.1 L19.55 -0.25 Q22.3 0.1 24.8 1.5 M6.3 10.6 L5.9 10.25 5.85 10.2 5.7 10.0 6.3 10.6 M-15.3 3.15 L-16.3 2.85 Q-16.7 2.5 -16.7 2.05 L-16.05 1.45 Q-13.75 -0.1 -11.0 -0.25 L-16.7 2.05 -15.3 3.15 M2.75 10.1 L2.6 10.25 1.0 12.0 Q0.0 13.15 -1.4 14.0 L-0.55 13.15 -1.45 12.65 -3.9 6.8 -4.65 7.25 -8.35 8.0 -10.1 9.55 -10.35 8.9 Q-10.9 6.6 -10.25 4.15 -12.5 3.15 -14.6 1.95 L-14.6 1.65 -10.35 0.6 -10.2 0.8 Q-4.55 5.3 2.0 7.75 L2.75 10.1" fill="#64180f" fill-rule="evenodd" stroke="none"/>
      <path d="M18.0 14.05 L18.45 13.9 18.1 14.15 15.6 15.55 13.45 16.5 7.65 18.05 Q0.2 19.05 -6.35 15.8 L-9.25 14.35 -9.4 14.25 -9.35 14.2 Q-2.45 16.6 4.75 16.4 L7.8 16.2 Q11.1 15.9 14.15 15.0 L18.0 14.05 M3.7 11.85 L4.45 12.25 5.0 11.7 4.95 15.8 4.1 16.0 3.7 11.85" fill="#56110b" fill-rule="evenodd" stroke="none"/>
      <path d="M25.2 2.05 L25.1 2.5 24.45 3.05 22.65 3.45 19.05 4.1 Q21.15 3.65 22.65 1.9 L22.85 1.7 21.7 0.65 25.2 2.05 M18.15 9.5 L13.85 7.85 12.6 7.0 Q14.35 7.5 16.05 8.3 17.15 8.75 18.15 9.5 M11.05 14.0 L10.55 14.25 6.3 10.6 5.7 10.0 6.35 8.35 7.4 10.1 Q8.8 12.4 11.05 14.0 M-11.65 3.95 L-14.3 3.5 -15.3 3.15 -16.7 2.05 -11.0 -0.25 -10.65 0.1 -10.35 0.6 -14.6 1.65 -14.6 1.95 Q-12.5 3.15 -10.25 4.15 L-11.65 3.95 M-1.4 14.0 L-2.05 14.25 Q-4.1 11.2 -3.85 7.15 -7.1 9.25 -10.7 10.05 L-10.1 9.55 -8.35 8.0 -4.65 7.25 -3.9 6.8 -1.45 12.65 -0.55 13.15 -1.4 14.0" fill="#a6281b" fill-rule="evenodd" stroke="none"/>
    </g>
  </defs>
</svg>
